X: 421
T: Bir Yâr Sevdim Kuşadalı
C: K. Hâfız Yaşar
O: Turkey
F: http://compmusic.upf.edu/node/140
N: hicazkar--sarki--aksak--bir_yar--k_hafiz_yasar
N: makam= hicazkar
N: form= sarki
N: usul= aksak = 9/8
M: 9/8
L: 1/16
K: C _1/4B _7/8e _7/8A ^f
Q: 1/4=216
%%MIDI tuningsystem comma53
gfga gfga gfga gfed c2 | =f_1/4e fgfe fgfe fagf _7/8edc2  | 
w:  ARANAĞME  |   | 
ede=f edef edeg ^fedc BA | GA Bcde fgag fag6  | 
w:   |   | 
gfga gfga gfga gfed c2 | =f_1/4e fgfe fgfe fagf _7/8edc2  | 
w:  ARANAĞME  |   | 
ede=f edef edeg ^fedc BA | GA Bcd2 cBBA AGG4z2  | 
w:   |   | 
z4 f2g2 g4 g4 z2 | g3fe2 g2f2 e2d4z2  | \
w:  Bir  yâr  sev dim   |  Kuş_ *  *  a da *  lı   | 
d2f2 e2d2 c4 =a4 g2 | 
w:  bo yu  bo su  e dâ  | 
gf g=af2 e2d2 c2B2 A2G2  | G4 f2g2 g4 g6 | \
w:  lı    |  *  Bir  yâr  sev dim   | 
g3fe2 g2f2 e2d4z2  | 
w:  Kuş_ *  *  a da *  lı   | 
d2f2 e2d2 c4 e4 d2 | d6 dedc Bcde fdec  | \
w:  bo yu  bo su  e dâ  |  lı   *  SAZ  | 
d4 d2_1/4e2 =f4 g4 f2 | 
w:  *  Me ğer_ o  sev  | 
=f3ee3dd2 c2Bc dcBA  | B4 G2A2 G4 B2c2 d2 | \
w:  dâ *  lı  *  ol *  muş   |  *  üç  be ye  ay  | 
B3AA3GG4de dcBc  | 
w:  rı  *  ay *  rı   SAZ  | 
d4 d2_1/4e2 =f4 g4 f2 | =f3ee3dd2 c2Bc dcBA  | \
w:  *  Me ğer_ o  sev  |  dâ *  lı  *  ol *  muş   | 
B4 G2A2 G4 B2c2 d2 | 
w:  *  üç  be ye  ay  | 
B3AA3GG8z2  | f16 e2 | g16z2  | g2a2 g2f2 e2d2 e4 f2 | \
w:  rı  *  ay *  rı    |  Ah   |  ah   |  Bi rin ci si  pa *  ra  | 
g6 d2e2 f2g6  | 
w:  lı  SAZ  | 
g2a2 g2f2 e2d2 e4 f2 | g6 d2e2 f2g6  | \
w:  i kin ci si  sev *  da  |  lı  SAZ  | 
g2a2 g2f2 e2d2 c2B2 c2 | 
w:  ü çün cü sü  be *  lâ  | 
d6 dedc Bcde fded  | d4 d2_1/4e2 =f4 g4 f2 | \
w:  lı   SAZ  |  *  Ü çü nün  de   | 
=f3ee2 d2d3cBc dcBA  | 
w:  yer *  le ri  ay *  rı   | 
B4 G2A2 G4 B2c2 d2 | B3AA3GG4de dcBc  | \
w:  *  ba na  bir  şey   |  kal *  ma *  dı   SAZ  | 
d4 d2_1/4e2 =f4 g4 f2 | 
w:  *  Ü çü nün  de   | 
=f3ee2 d2d3cBc dcBA  | B4 G2A2 G4 B2c2 d2 | \
w:  yer *  le ri  ay *  rı   |  *  ba na  bir  şey   | 
B3AA3GG8z2  | 
w:  kal *  ma *  dı    | 
|


